X: 1
T: Zumpa Ondo  [G]
O: Japan
Z: 2009 John Chambers <jc:trillian.mit.edu>
S: handwritten MS of unknown origin
Q: "Play with slightly 'dotted' rhythm"
M: 4/4
L: 1/8
K: G
[| "G" d2 dd dd dd | "G"de/d/ Bd BA BA \
| "G"G2 EG ED B,B, | "G"D8 \
| "G" d2 dd dd dd | "G"de/d/ Bd- dd BA ||
|: "G"GB, DE =FE FE | "G"=FF EE DB, DD \
| "G"G ","B, B,D D2 D2- | "G"D2 ED B,2 A,2 \
| "G"G,4 GG E2 | "G"D2 D6 |
| "G"z2 E2 G2 G2- | G3 G E2 D2- \
| D2 B,A, G,3 G, | "D"A,8 \
| "Em"z2 BB Bc BA | "Em"G2 GE DB, DE |
| "G"zG GG "D"AG B2 | "D"AG E2 "G"G4 \
| "Em"z2 BB Bc BA | "Em"G2GE DB, DE \
| "G"zG GG "D"A2 B2 | "D"AG E2 "G"G4 :|
[|["Coda" "G"z2 dd dd dd | "G"d2 ed BA BA \
| "G"G2 EG ED B,B, | "G"D8 \
| "G"d2 dd dd dd | "G"de/d/ Bd- dd BA |
| "G"GB, DE =FE FE | "D"D2 F2 "G"G2 z2 |] y4 y4 y4 y4 y4 y4 y4 y4 y4 y4 y4 y4


%%sep 3 1 500

